X:98
T: JOSEPH LIEBER JOSEPH
N: E0056
O: Europa, Mitteleuropa, Deutschland, Schwaben
R: erzaehlendes Volks - Lied, Sage, Kinds - Mord
M: 4/4
L: 1/4
K: F
_A | _AFcc | c2_A
A | GGGF | G2z
G | G_ABc | d2c
B | _A2GG | F2z

